blockchains/ethereum/assets/0x607F4C5BB672230e8672085532f7e901544a7375/logo.svg

<svg fill="none" height="250" viewBox="0 0 250 250" width="250" xmlns="http://www.w3.org/2000/svg" xmlns:xlink="http://www.w3.org/1999/xlink"><clipPath id="a"><path d="m0 0h250v250h-250z"/></clipPath><clipPath id="b"><path d="m0 0h250v250h-250z"/></clipPath><g clip-path="url(#a)"><g clip-path="url(#b)"><path d="m125 250c69.036 0 125-55.964 125-125 0-69.0356-55.964-125-125-125-69.0356 0-125 55.9644-125 125 0 69.036 55.9644 125 125 125z" fill="#ffd800"/><path clip-rule="evenodd" d="m185.023 100.672c.446-.445 1.329-.445 2.196-.445 13.179 0 23.719 11.156 23.719 24.554 0 12.5-9.219 22.321-21.079 24.547h-2.64c-4.391 0-8.782-1.336-12.735-3.57-1.283-.904-2.822-1.372-4.39-1.336-1.758 0-3.516.445-4.828 1.336-3.079 1.789-4.391 4.914-4.391 8.484v4.016c-.463 5.515-2.813 10.702-6.654 14.686-3.841 3.985-8.938 6.524-14.432 7.189h-2.633c-4.39 0-8.781-1.336-12.734-3.57-1.758-.891-3.07-1.336-4.828-1.336s-3.516.445-4.836 1.336c-3.07 1.789-4.391 4.914-4.391 8.484v4.016c-.875 11.609-10.101 20.539-21.5154 21.875h-2.1953c-13.1797 0-23.7188-11.165-23.7188-24.555.4375-12.5 9.2187-22.766 21.0781-24.11h2.6407c4.3906 0 8.7812 1.344 12.7343 3.579 1.2834.903 2.8214 1.371 4.3904 1.335 1.758 0 3.516-.445 4.828-1.335 3.079-1.789 4.391-4.915 4.391-8.485-.875-12.945 8.352-24.554 21.086-25.89h2.633c4.39 0 8.781 1.335 12.734 3.57 1.758.89 3.078 1.336 4.836 1.336 1.75 0 3.516-.446 4.828-1.336 3.071-1.789 4.391-4.914 4.391-8.484-.875-12.946 8.781-24.555 21.515-25.891zm-50.492-30.8048c.875-.4453 1.321-.4453 2.633-.4453 13.18 0 23.719 11.1562 23.719 24.5547-.438 12.5004-9.219 22.7654-21.086 24.1014h-2.633c-4.391 0-8.781-1.336-12.734-3.57-1.283-.904-2.822-1.372-4.391-1.336-1.758 0-3.516.445-4.828 1.336-3.078 1.789-4.398 4.914-4.398 8.484v4.016c-.875 11.601-10.094 20.531-21.5161 21.875h-2.1953c-13.1719 0-23.7188-11.156-23.7188-24.555 0-12.047 8.7891-21.875 20.6406-23.656h2.6407c4.3906 0 8.7812 1.336 12.7343 3.57 1.2826.904 2.8216 1.372 4.3906 1.336 1.758 0 3.516-.445 4.828-1.336 3.078-1.789 4.391-4.9139 4.391-8.4842-.875-12.9453 8.789-24.5547 21.523-25.8906zm-48.3122-30.8047c13.0937 0 23.7112 10.7969 23.7112 24.1094s-10.6253 24.1015-23.7112 24.1015c-13.1016 0-23.7188-10.789-23.7188-24.1015s10.625-24.1094 23.7188-24.1094z" fill="#fff" fill-rule="evenodd"/></g></g></svg>

<svg width="250" height="250" viewBox="0 0 250 250" fill="none" xmlns="http://www.w3.org/2000/svg">
<g clip-path="url(#clip0_7_499)">
<g clip-path="url(#clip1_7_499)">
<path d="M125 250C194.036 250 250 194.036 250 125C250 55.9644 194.036 0 125 0C55.9644 0 0 55.9644 0 125C0 194.036 55.9644 250 125 250Z" fill="#FFD800"/>
<path fill-rule="evenodd" clip-rule="evenodd" d="M185.023 100.672C185.469 100.227 186.352 100.227 187.219 100.227C200.398 100.227 210.938 111.383 210.938 124.781C210.938 137.281 201.719 147.102 189.859 149.328H187.219C182.828 149.328 178.437 147.992 174.484 145.758C173.201 144.854 171.662 144.386 170.094 144.422C168.336 144.422 166.578 144.867 165.266 145.758C162.187 147.547 160.875 150.672 160.875 154.242V158.258C160.412 163.773 158.062 168.96 154.221 172.944C150.38 176.929 145.283 179.468 139.789 180.133H137.156C132.766 180.133 128.375 178.797 124.422 176.563C122.664 175.672 121.352 175.227 119.594 175.227C117.836 175.227 116.078 175.672 114.758 176.563C111.688 178.352 110.367 181.477 110.367 185.047V189.063C109.492 200.672 100.266 209.602 88.8516 210.938H86.6563C73.4766 210.938 62.9375 199.773 62.9375 186.383C63.375 173.883 72.1562 163.617 84.0156 162.273H86.6563C91.0469 162.273 95.4375 163.617 99.3906 165.852C100.674 166.755 102.212 167.223 103.781 167.187C105.539 167.187 107.297 166.742 108.609 165.852C111.688 164.063 113 160.937 113 157.367C112.125 144.422 121.352 132.813 134.086 131.477H136.719C141.109 131.477 145.5 132.812 149.453 135.047C151.211 135.937 152.531 136.383 154.289 136.383C156.039 136.383 157.805 135.937 159.117 135.047C162.188 133.258 163.508 130.133 163.508 126.563C162.633 113.617 172.289 102.008 185.023 100.672ZM134.531 69.8672C135.406 69.4219 135.852 69.4219 137.164 69.4219C150.344 69.4219 160.883 80.5781 160.883 93.9766C160.445 106.477 151.664 116.742 139.797 118.078H137.164C132.773 118.078 128.383 116.742 124.43 114.508C123.147 113.604 121.608 113.136 120.039 113.172C118.281 113.172 116.523 113.617 115.211 114.508C112.133 116.297 110.813 119.422 110.813 122.992V127.008C109.938 138.609 100.719 147.539 89.2969 148.883H87.1016C73.9297 148.883 63.3828 137.727 63.3828 124.328C63.3828 112.281 72.1719 102.453 84.0234 100.672H86.6641C91.0547 100.672 95.4453 102.008 99.3984 104.242C100.681 105.146 102.22 105.614 103.789 105.578C105.547 105.578 107.305 105.133 108.617 104.242C111.695 102.453 113.008 99.3281 113.008 95.7578C112.133 82.8125 121.797 71.2031 134.531 69.8672ZM86.2188 39.0625C99.3125 39.0625 109.93 49.8594 109.93 63.1719C109.93 76.4844 99.3047 87.2734 86.2188 87.2734C73.1172 87.2734 62.5 76.4844 62.5 63.1719C62.5 49.8594 73.125 39.0625 86.2188 39.0625Z" fill="white"/>
</g>
</g>
<defs>
<clipPath id="clip0_7_499">
<rect width="250" height="250" fill="white"/>
</clipPath>
<clipPath id="clip1_7_499">
<rect width="250" height="250" fill="white"/>
</clipPath>
</defs>
</svg>
